/* XPM */
static const char *mini_flycast[] = {
/* columns rows colors chars-per-pixel */
"16 16 131 2 ",
"   c #280654",
".  c #280A57",
"X  c #2D0A61",
"o  c #300C68",
"O  c #3A0F70",
"+  c #3B0F73",
"@  c #3D0F7E",
"#  c #431B7F",
"$  c #421C7D",
"%  c #400D82",
"&  c #46098E",
"*  c #451483",
"=  c #451C83",
"-  c #48138A",
";  c #48158F",
":  c #471C89",
">  c #471597",
",  c #481193",
"<  c #4C1198",
"1  c #4E1A9C",
"2  c #51119A",
"3  c #521A98",
"4  c #562D95",
"5  c #562A9B",
"6  c #560EA4",
"7  c #560EA5",
"8  c #4F16A1",
"9  c #5C12AE",
"0  c #511BAB",
"q  c #571DA8",
"w  c #561DAC",
"e  c #5C1BAA",
"r  c #5A18B5",
"t  c #5D1AB7",
"y  c #5D1FBB",
"u  c #601BB4",
"i  c #6317B8",
"p  c #6113BC",
"a  c #631ABC",
"s  c #5C2EA2",
"d  c #5420AE",
"f  c #5720B4",
"g  c #632CAD",
"h  c #632BB6",
"j  c #6022BF",
"k  c #6230B2",
"l  c #6A35BC",
"z  c #6A34BF",
"x  c #6C35BE",
"c  c #6C36BF",
"v  c #6B1ECB",
"b  c #6D1ECA",
"n  c #6424C1",
"m  c #6224C5",
"M  c #6524C4",
"N  c #6F2BC6",
"B  c #6526CD",
"V  c #6F21C9",
"C  c #6D26CB",
"Z  c #6C24CF",
"A  c #6E26CE",
"S  c #7020CE",
"D  c #783BCC",
"F  c #6E28D0",
"G  c #6B2AD8",
"H  c #6B2BDB",
"J  c #6F2EDD",
"K  c #702FD5",
"L  c #772DD6",
"P  c #7432D2",
"I  c #7236D4",
"U  c #7739D5",
"Y  c #7B3ED6",
"T  c #7432DE",
"R  c #7637DF",
"E  c #7C30DB",
"W  c #7936DE",
"Q  c #783ADB",
"!  c #7E3EDA",
"~  c #7E3DDE",
"^  c #6E2EE0",
"/  c #702FE5",
"(  c #7D2FE2",
")  c #7030E2",
"_  c #7635E3",
"`  c #7130E7",
"'  c #7633E4",
"]  c #7837E6",
"[  c #783AE2",
"{  c #7E3BE5",
"}  c #7433E8",
"|  c #7533EA",
" . c #7937E9",
".. c #7A36EB",
"X. c #7D37E8",
"o. c #7C37EA",
"O. c #7836EC",
"+. c #7C39ED",
"@. c #7F3AEC",
"#. c #7C39EE",
"$. c #7E3BEE",
"%. c #8037E8",
"&. c #873AE9",
"*. c #803CEB",
"=. c #803BED",
"-. c #823EF0",
";. c #8141DB",
":. c #8343DF",
">. c #8545E0",
",. c #8140E5",
"<. c #8A43EE",
"1. c #8844EC",
"2. c #8A46EF",
"3. c #8C44EE",
"4. c #8C4AEE",
"5. c #8743F2",
"6. c #8743F3",
"7. c #8A41F0",
"8. c #8C43F1",
"9. c #8A46F4",
"0. c #8D47F5",
"q. c #8C47F6",
"w. c #9145F4",
"e. c #9247F5",
"r. c #9249F5",
"t. c #954BF8",
"y. c #964EFA",
"u. c #974EFA",
"i. c #9A53FD",
"p. c #9B54FE",
"a. c None",
/* pixels */
"a.a.a.a.a.a.a.a.a.a.a.a.a.a.a.a.",
"a.a.a.a.p.u.w.w.t.i.a.a.a.a.a.a.",
"a.a.a.r.E i 7 7 9 V &.u.a.a.a.a.",
"a.a.3.S a.a.>.;.D g 2 b 8.a.a.a.",
"a.:.( a.4.<.N e u L ! 3 p 7.a.a.",
"4 2.a.a.2.a.a.Y c * a ~ - v q.a.",
"s 9.a.z q.a.,.P C U + Z c & %.a.",
"5 5.a.h 5.a.W z a.F k < { + Z 5.",
"# *.a.; @.# q =.a.n Q % o.= t -.",
"a.P [ a.M R : a.a.T I , o.a.r @.",
"a.1 ..a.  j ' .._ @.a.y @.a.8 ] ",
"a.a.m O.a.a.@ w a.a.a.J a.a.a.a.",
"a.a.X B | a.a.a.a.a.H | a.a.a.a.",
"a.a.a.. f H / ` / ^ ) a.a.a.a.a.",
"a.a.a.a.a.o > 0 d a.a.a.a.a.a.a.",
"a.a.a.a.a.a.a.a.a.a.a.a.a.a.a.a."
};
