/* XPM */
static const char *mini_hedge_bw[] = {
/* columns rows colors chars-per-pixel */
"16 16 112 2 ",
"   c black",
".  c #0B0B0B",
"X  c #0E0E0E",
"o  c #1A1A1A",
"O  c #282828",
"+  c #2B2B2B",
"@  c #373737",
"#  c #454545",
"$  c #474747",
"%  c #4C4C4C",
"&  c #4E4E4E",
"*  c #505050",
"=  c #555555",
"-  c #585858",
";  c #595959",
":  c #5A5A5A",
">  c #5B5B5B",
",  c #5C5C5C",
"<  c #5D5D5D",
"1  c #5E5E5E",
"2  c #5F5F5F",
"3  c #606060",
"4  c #616161",
"5  c #626262",
"6  c #636363",
"7  c #646464",
"8  c #656565",
"9  c #666666",
"0  c #676767",
"q  c #686868",
"w  c #696969",
"e  c #6A6A6A",
"r  c #6C6C6C",
"t  c #6D6D6D",
"y  c #6F6F6F",
"u  c #707070",
"i  c #717171",
"p  c #727272",
"a  c #757575",
"s  c #767676",
"d  c #787878",
"f  c #7A7A7A",
"g  c #7B7B7B",
"h  c #808080",
"j  c #818181",
"k  c #828282",
"l  c #838383",
"z  c #848484",
"x  c #858585",
"c  c #868686",
"v  c #898989",
"b  c #8A8A8A",
"n  c #8B8B8B",
"m  c #8C8C8C",
"M  c #8D8D8D",
"N  c #8E8E8E",
"B  c #8F8F8F",
"V  c #909090",
"C  c #919191",
"Z  c #929292",
"A  c #939393",
"S  c #949494",
"D  c #959595",
"F  c #979797",
"G  c #9A9A9A",
"H  c #9B9B9B",
"J  c #9D9D9D",
"K  c #9E9E9E",
"L  c #9F9F9F",
"P  c #A2A2A2",
"I  c #A3A3A3",
"U  c #A4A4A4",
"Y  c #A6A6A6",
"T  c #A7A7A7",
"R  c #A8A8A8",
"E  c #AAAAAA",
"W  c #ABABAB",
"Q  c #ADADAD",
"!  c #AEAEAE",
"~  c #B0B0B0",
"^  c #B1B1B1",
"/  c #B5B5B5",
"(  c #B6B6B6",
")  c #B7B7B7",
"_  c #B8B8B8",
"`  c #B9B9B9",
"'  c #BCBCBC",
"]  c #BDBDBD",
"[  c #C0C0C0",
"{  c #C1C1C1",
"}  c #C2C2C2",
"|  c #CBCBCB",
" . c #CDCDCD",
".. c #CECECE",
"X. c #CFCFCF",
"o. c #D0D0D0",
"O. c #D1D1D1",
"+. c #D2D2D2",
"@. c #D3D3D3",
"#. c #D4D4D4",
"$. c #D7D7D7",
"%. c #D8D8D8",
"&. c #D9D9D9",
"*. c #DEDEDE",
"=. c #E2E2E2",
"-. c #E4E4E4",
";. c #E6E6E6",
":. c #E7E7E7",
">. c #E8E8E8",
",. c #EBEBEB",
"<. c #EFEFEF",
"1. c #F6F6F6",
/* pixels */
"      2 : 4 4 : : =             ",
"      2 : y j y 2 = :           ",
"2 2 2 : : p H Z p 2 % q .       ",
"8 4 y p y y d Z J D B s * 2 X   ",
"2 : j H Z x ^  .+.+. .` v = 4 o ",
": E y v j ) #.+.+.%.,.,.%.Z @ : ",
"2 8 y p B  .+.+.+.<.<.;. .U y y ",
"4 s B x U  .+.+.+.1.J 8 d B x ) ",
": p v d U | +.+.+.;.*.| ;.+.x 8 ",
": : q s I { +.+.+.+.=.#.] ` J j ",
"E 8 d B v J !  .+.+.+.` { ^ D d ",
": q x B I  .) E +.+.+.+.{ x q : ",
"2 4 q q U  .{ D ) ] ] E j 2 q % ",
"    2 : d Z j v H D D J j O :   ",
"      % # # p U ^ v ! { v O 2   ",
"          4 2 d j y j j 8 p 2   "
};
