/* XPM */
static const char *mini_word[] = {
/* columns rows colors chars-per-pixel */
"16 16 143 2 ",
"   c #4169AF",
".  c #456CB1",
"X  c #4C6CB0",
"o  c #4E74B4",
"O  c #5176B7",
"+  c #5775B5",
"@  c #5B79B6",
"#  c #5478B8",
"$  c #5F7CB8",
"%  c #5C7FBC",
"&  c #607DB8",
"*  c #627DBA",
"=  c #6681BD",
"-  c #6384BD",
";  c #6A84BF",
":  c #6686C0",
">  c #708AC0",
",  c #718CC0",
"<  c #708EC3",
"1  c #758FC2",
"2  c #768FC2",
"3  c #758DC4",
"4  c #7890C5",
"5  c #7894C6",
"6  c #7E9ACB",
"7  c #969697",
"8  c #A9AEB0",
"9  c #B2B9BC",
"0  c #B9B9B9",
"q  c #8297CA",
"w  c #859FCB",
"e  c #869BCC",
"r  c #87A1CC",
"t  c #8AA4CE",
"y  c #8FA5CD",
"u  c #93A7CF",
"i  c #93A6D0",
"p  c #95A7D2",
"a  c #9AACD4",
"s  c #9CB1D5",
"d  c #9FB0D5",
"f  c #9DB3D6",
"g  c #A0B0D6",
"h  c #AFBAD6",
"j  c #A5B5D8",
"k  c #A4B4D9",
"l  c #A8B7DA",
"z  c #ADBCDB",
"x  c #AEBCDD",
"c  c #B0BDDC",
"v  c #B2BFDD",
"b  c #BCC3C6",
"n  c #BCC4C7",
"m  c #AFC0DD",
"M  c #B7C4DB",
"N  c #B7C3DF",
"B  c #B7C5DF",
"V  c #BAC7DD",
"C  c #BBC8DE",
"Z  c #BFC8DD",
"A  c #BCC9DE",
"S  c #B6C6E0",
"D  c #BCC7E2",
"F  c #BDC8E2",
"G  c #BECBE2",
"H  c #BDCCE3",
"J  c #BFCDE2",
"K  c #C5CCCF",
"L  c #C0CBDF",
"P  c #CCD4D7",
"I  c #D3D3D4",
"U  c #D4DCDF",
"Y  c #C2CDE0",
"T  c #C5CFE1",
"R  c #C2CEE4",
"E  c #C4CEE6",
"W  c #C2D0E5",
"Q  c #C5D1E5",
"!  c #C5D3E5",
"~  c #C7D3E4",
"^  c #C6D0E6",
"/  c #C6D1E6",
"(  c #C7D4E7",
")  c #C8D0E1",
"_  c #CCD3E3",
"`  c #CED6E4",
"'  c #C8D5E8",
"]  c #CCD4E9",
"[  c #CCD7E9",
"{  c #CDD8E8",
"}  c #CDD9E9",
"|  c #CFD9E9",
" . c #D3DAE6",
".. c #D0D9E8",
"X. c #D2DBE9",
"o. c #D0DBEB",
"O. c #D3DCEB",
"+. c #D5DCE8",
"@. c #D6DDE8",
"#. c #D7DFEA",
"$. c #D4DDED",
"%. c #D6DDED",
"&. c #D5DEED",
"*. c #DBE3E6",
"=. c #DBE5EF",
"-. c #DDE3F0",
";. c #DFE6F1",
":. c #E6E7E8",
">. c #E0E5F1",
",. c #E2E7F2",
"<. c #E1EBF2",
"1. c #E4E8F3",
"2. c #E7EFF3",
"3. c #E7EFF4",
"4. c #EBEEF6",
"5. c #E8F1F5",
"6. c #E9F1F5",
"7. c #E9F2F5",
"8. c #EAF2F6",
"9. c #EDF1F7",
"0. c #ECF3F7",
"q. c #EDF4F7",
"w. c #F2F4F5",
"e. c #F0F2F8",
"r. c #F1F4F9",
"t. c #F2F4F9",
"y. c #F0F6F8",
"u. c #F1F6F8",
"i. c #F1F6F9",
"p. c #F2F6F9",
"a. c #F6F7FB",
"s. c #F4F8FA",
"d. c #F5F8FA",
"f. c #F7F8FB",
"g. c #F7F9FB",
"h. c #F8FAFB",
"j. c #F9FAFC",
"k. c #F9FBFC",
"l. c #FBFBFC",
"z. c #FBFBFD",
"x. c #FBFCFD",
"c. c #FCFCFD",
"v. c None",
/* pixels */
"v.v.v.v.v.v.v.v.v.v.v.v.v.v.v.v.",
"v.v.v.h ` +.+.+.+.+.+.+. .v.v.v.",
"v.v.Z X.S ' &.X.] ~ W J +.v.v.v.",
"v.h ~ f f ;.c.c.c.c.l.s.r.q.2.v.",
"v._ t r r 9.g >.v -.z ~ B =.*.v.",
"v.T < < 5 x.e F ; k ~ F y ~ U v.",
"v.Y - - w c.q D = f h.1 @ | P v.",
"v.Y - - f c.k l.3 s.s.R | 3.K v.",
"v.L o . m r.&.1.e.l.r.u 1 <.b v.",
"v.M   # &.4.x p 4 * + $ < 6.9 v.",
"v.V O : r.E a l N ~ O.| J 6.v.v.",
"v.Z % 6 c.a.>.] v i > X * 6.v.v.",
"v.) C X.c.c.c.c.c.l.s.r.q.6.v.v.",
"v.v.v.v.v.7 0 I :.w.s.r.9.6.v.v.",
"v.v.v.v.v.v.v.v.v.v.v.v.8 n v.v.",
"v.v.v.v.v.v.v.v.v.v.v.v.v.v.v.v."
};
