/* XPM */
static const char *mini_hedge[] = {
/* columns rows colors chars-per-pixel */
"16 16 137 2 ",
"   c #676767",
".  c #7A7C7A",
"X  c #782F90",
"o  c #6F3697",
"O  c #73399A",
"+  c #5E49A8",
"@  c #5D4AA9",
"#  c #5850AE",
"$  c #5259B7",
"%  c #6440A0",
"&  c #6640A0",
"*  c #6246A5",
"=  c #6842A2",
"-  c #6C42A2",
";  c #6846A6",
":  c #6B4AA9",
">  c #695CBA",
",  c #4766C2",
"<  c #526BC7",
"1  c #5172CE",
"2  c #577BD6",
"3  c #6B63C0",
"4  c #6E69C6",
"5  c #716BC8",
"6  c #871F82",
"7  c #891D81",
"8  c #9E1D82",
"9  c #902E90",
"0  c #813899",
"q  c #8F3B9D",
"w  c #AD2286",
"e  c #B22B8F",
"r  c #B42D8E",
"t  c #B73396",
"y  c #B73496",
"u  c #B83597",
"i  c #BA3895",
"p  c #BA3896",
"a  c #BB3997",
"s  c #B83699",
"d  c #B9379A",
"f  c #BA3998",
"g  c #BF409D",
"h  c #BF419D",
"j  c #BE409E",
"k  c #9B7A93",
"l  c #8542A1",
"z  c #8D4DAD",
"x  c #8558B4",
"c  c #B543A5",
"v  c #BE41A2",
"b  c #B84AAB",
"n  c #A35EB8",
"m  c #B565BC",
"M  c #C14F9F",
"N  c #C347A2",
"B  c #C348A9",
"V  c #C54CA9",
"C  c #C54DAC",
"Z  c #C64EAD",
"A  c #C54DAE",
"S  c #C354AC",
"D  c #C852B3",
"F  c #CC57B4",
"G  c #CE5CB2",
"H  c #CE5BB4",
"J  c #CC5BBD",
"K  c #CF5FBE",
"L  c #CA63BB",
"P  c #D060BD",
"I  c #D162BE",
"U  c #D467BC",
"Y  c #D261C2",
"T  c #D468C4",
"R  c #D76DC5",
"E  c #D86EC2",
"W  c #DA72C5",
"Q  c #D974C7",
"!  c #DA72C8",
"~  c #DE79CA",
"^  c #DE79CD",
"/  c #DC75D2",
"(  c #E07BCD",
")  c #E17DCE",
"_  c #E07DD6",
"`  c #E17FD7",
"'  c #3B8AE3",
"]  c #4A8AE4",
"[  c #5186E0",
"{  c #4E95EE",
"}  c #4799F1",
"|  c #9E9F9E",
" . c #BE85AE",
".. c #E284CF",
"X. c #E280D0",
"o. c #E686D6",
"O. c #E687D6",
"+. c #E483DA",
"@. c #E687D8",
"#. c #E687D9",
"$. c #E7AFDD",
"%. c #EC92E2",
"&. c #EE94E0",
"*. c #EE94E1",
"=. c #EF95E3",
"-. c #EF97E3",
";. c #EF96E5",
":. c #EF97E5",
">. c #F195E1",
",. c #F199E5",
"<. c #F099E6",
"1. c #F29BE7",
"2. c #F29CE7",
"3. c #F29DE7",
"4. c #F49CE7",
"5. c #F29CE8",
"6. c #F29DE8",
"7. c #F39DE8",
"8. c #F29EE8",
"9. c #F29FE8",
"0. c #F49EE9",
"q. c #F4ACEB",
"w. c #EFB6E3",
"e. c #EFB1E4",
"r. c #F8BFF0",
"t. c #CBCACB",
"y. c #CED0CF",
"u. c #DFDDDF",
"i. c #EDDDEB",
"p. c #F9C6F2",
"a. c #FACAF5",
"s. c #FAD1F5",
"d. c #FBDBF7",
"f. c #E4E4E4",
"g. c #EEF0EE",
"h. c #FFE6FC",
"j. c None",
/* pixels */
"j.j.j.j.j.6 j.j.j.j.j.j.j.j.j.j.",
"j.j.j.j.j.= < O j.j.j.j.j.j.j.j.",
"j.j.j.j.j.- { [ ; j.j.j.j.j.j.j.",
"j.j.* # + & l n m S N j.j.j.j.j.",
"j.j.> } ] x Q >.4.6.=.( j j.j.j.",
"j.j.9 4 z ^ 0.3.1.q.s.a.w.M j.j.",
"j.j.& + b =.3.3.3.d.g.f.y. .j.j.",
"7 $ ' 3 K :.3.3.6.h.|   . k j.j.",
"j.0 4 q Y %.3.3.1.p.u.t.i.$.i j.",
"j.j.X : J +.6.3.3.6.r.e...X.G i ",
"j.j., 2 c F E =.3.3.1.) o.W V r ",
"j.o 1 5 L =.~ U 1.3.3.6.@.f j.j.",
"j.j.j.8 I :.o.C / ` ` T s j.j.j.",
"j.j.j.j.e B u v D C C H i j.j.j.",
"j.j.j.j.j.j.w I ! j R @.j j.j.j.",
"j.j.j.j.j.j.j.e s j.t t j.j.j.j."
};
