/* XPM */
static const char *mini_office[] = {
/* columns rows colors chars-per-pixel */
"16 16 93 2 ",
"   c #070D03",
".  c #01090D",
"X  c #110300",
"o  c #1A0400",
"O  c #100D00",
"+  c #0B1505",
"@  c #1A1500",
"#  c #020E15",
"$  c #3F0A00",
"%  c #2A1515",
"&  c #1A330C",
"*  c #1A340C",
"=  c #2D3607",
"-  c #3F3300",
";  c #331E20",
":  c #0F2D24",
">  c #163C2A",
",  c #042333",
"<  c #042334",
"1  c #042434",
"2  c #25232C",
"3  c #410A00",
"4  c #550E01",
"5  c #5C1E00",
"6  c #641000",
"7  c #661000",
"8  c #611600",
"9  c #621305",
"0  c #691100",
"q  c #7F1704",
"w  c #432300",
"e  c #572800",
"r  c #403300",
"t  c #3F4608",
"y  c #254710",
"u  c #254C19",
"i  c #295113",
"p  c #2B5514",
"a  c #315010",
"s  c #366215",
"d  c #356818",
"f  c #386D19",
"g  c #1E4420",
"h  c #4D4905",
"j  c #584600",
"k  c #5C4E02",
"l  c #634700",
"z  c #665200",
"x  c #6A5400",
"c  c #7A5C00",
"v  c #407E1D",
"b  c #063146",
"n  c #0B3A48",
"m  c #113145",
"M  c #073751",
"N  c #073853",
"B  c #083954",
"V  c #083C58",
"C  c #0B455D",
"Z  c #094B6E",
"A  c #811500",
"S  c #841601",
"D  c #9D1900",
"F  c #C81F00",
"G  c #D92200",
"H  c #ED2500",
"J  c #F72700",
"K  c #FA2700",
"L  c #FF2800",
"P  c #816700",
"I  c #886C00",
"U  c #9E7E00",
"Y  c #519F25",
"T  c #53A226",
"R  c #58AE28",
"E  c #63C32D",
"W  c #64C42E",
"Q  c #66C82F",
"!  c #C89E00",
"~  c #CCA100",
"^  c #DAAC00",
"/  c #F5C200",
"(  c #FBC600",
")  c #FCC700",
"_  c #FFC900",
"`  c #0B5781",
"'  c #0E6FA4",
"]  c #0F76AD",
"[  c #1083C1",
"{  c #1085C3",
"}  c #1187C7",
"|  c #1188C7",
" . c #118ACB",
/* pixels */
"X 3 3 3 3 3 3 o , < < < < < < . ",
"3 L L L L H L 7 |  . . . . . .1 ",
"3 L L L q V 2 %  . . . . . . .1 ",
"3 L L L m  . .}  . . .}  . . .1 ",
"3 L L J B  . . . .' > p u C  .1 ",
"3 L L L ; [ ' `  .n W Q Q d ] 1 ",
"3 L L L G 9 S 4  .Z Y Q Q g { 1 ",
"$ K L L L L K 7 M b v Q Q : N # ",
"@ z w L L D j z i Q Q Q Q Q W & ",
"r / 5 L L F I ) y f a T Q Q Q * ",
"r ^ A L L K l _ U ! ( t Q Q Q * ",
"r _ c 8 0 e ~ _ _ _ _ x W Q Q * ",
"r _ _ ) / _ _ _ ) _ _ k Q Q Q * ",
"r _ _ _ _ _ _ _ = h P s Q Q Q * ",
"r _ _ _ _ _ _ ( i E R Q Q Q Q * ",
"O r r r r r r - + * * * * * *   "
};
