/* XPM */
static const char *mini_outlook[] = {
/* columns rows colors chars-per-pixel */
"16 15 123 2 ",
"   c #D4A338",
".  c #EFAB3C",
"X  c #EFAB3D",
"o  c #F2AC3A",
"O  c #E6B830",
"+  c #F1C52F",
"@  c #CE944F",
"#  c #DA9B49",
"$  c #D1A554",
"%  c #DBA554",
"&  c #DEAD53",
"*  c #EAB347",
"=  c #E2B54E",
"-  c #E5BD4A",
";  c #E6B752",
":  c #E1B557",
">  c #EAB557",
",  c #E6B956",
"<  c #EAB55A",
"1  c #C9A068",
"2  c #EBBE7C",
"3  c #EDC052",
"4  c #EDCB5C",
"5  c #ECCC60",
"6  c #EDCE62",
"7  c #EAC36C",
"8  c #EDCC6A",
"9  c #EECD6B",
"0  c #F3CF61",
"q  c #F5CC64",
"w  c #F5D360",
"e  c #F7D662",
"r  c #F6D566",
"t  c #FAD56B",
"y  c #EDC571",
"u  c #ECC77B",
"i  c #ECC47D",
"p  c #E8C97E",
"a  c #ECCA7C",
"s  c #F5DB71",
"d  c #F7DE72",
"f  c #F2D77B",
"g  c #FCD77F",
"h  c #FBE26B",
"j  c #FBE573",
"k  c #FBE67B",
"l  c #FAE57C",
"z  c #FCE77C",
"x  c #BBB1A0",
"c  c #E0B985",
"v  c #F7CC86",
"b  c #F2CF8D",
"n  c #F8CF8D",
"m  c #FCD881",
"M  c #FAD58D",
"N  c #F9D58F",
"B  c #EEC796",
"V  c #FDDD92",
"C  c #FDDF97",
"Z  c #F7E185",
"A  c #F8E481",
"S  c #FAE481",
"D  c #FAE787",
"F  c #FCE985",
"G  c #F9E58A",
"H  c #FCEB8D",
"J  c #FCEC8D",
"K  c #FCEE96",
"L  c #FBEC99",
"P  c #FDF09F",
"I  c #FBDDA6",
"U  c #F1D8A8",
"Y  c #ECD3B3",
"T  c #FBDFB1",
"R  c #F4DCBB",
"E  c #FDE2A3",
"W  c #FEE3A3",
"Q  c #FDE5AC",
"!  c #FCE3B3",
"~  c #FDE8B3",
"^  c #FDE8B5",
"/  c #FEE8B5",
"(  c #FDE9BB",
")  c #FDEABC",
"_  c #FEEABE",
"`  c #DFDFDF",
"'  c #E3D8C6",
"]  c #FEEBC1",
"[  c #FEEDC1",
"{  c #FEECC6",
"}  c #FEEDC6",
"|  c #FEEDC7",
" . c #FCEACA",
".. c #FEEECC",
"X. c #FEEFCC",
"o. c #EDE2D0",
"O. c #F8EED5",
"+. c #FEF1D2",
"@. c #FEF1D4",
"#. c #FEF2D5",
"$. c #FEF3D7",
"%. c #FDF4D7",
"&. c #FEF4DD",
"*. c #FEF4DE",
"=. c #EFF0EE",
"-. c #FEF7E2",
";. c #FEF6E4",
":. c #FEF6E5",
">. c #FCF7EB",
",. c #FAF4EC",
"<. c #FEF9E8",
"1. c #FDF9EE",
"2. c #FEF9EE",
"3. c #F4F4F2",
"4. c #FEFAF0",
"5. c #F8F8F6",
"6. c #FCFAF4",
"7. c #FBFBFA",
"8. c #FEFDF8",
"9. c #FEFDFA",
"0. c #FFFEFB",
"q. c #FFFFFD",
"w. c None",
/* pixels */
"w.w.w.w.w.w.w.w.w.w.w.w.w.w.w.w.",
"w.w.w.n  .;.;.;.;.;.;.;.1.o w.w.",
"w.w.T ..} } } } } } } } &.o w.w.",
"w.v ) #.&.#.+...} ] ( / #.o w.w.",
"w.! W <.q.q.q.q.q.q.q.q.8.4.q.w.",
". ) C t <.8.U u y i R q.q.q.6.w.",
". / W %.q 7 Z J F z 0 2 8.Y @ w.",
". Q ~ q.a S l J F z j w # c ,.w.",
". C [ 1.9 H + d F s 5 h < q.7.w.",
". g -.O.f P D O -   5 h * q.5.w.",
". V q.>.9 P K S 4 k j h > q.3.w.",
". m 3 p = L K J F z j e B q.=.w.",
". I M M b ; G J F z r % ' o.` w.",
"w.w.w.w.w.w.$ : , & 1 x w.w.w.w.",
"w.w.w.w.w.w.w.w.w.w.w.w.w.w.w.w."
};
