/* XPM */
static const char *mini_onenote[] = {
/* columns rows colors chars-per-pixel */
"16 16 111 2 ",
"   c #734D75",
".  c #7C527E",
"X  c #815882",
"o  c #895B8B",
"O  c #8A5C8C",
"+  c #856188",
"@  c #8D738D",
"#  c #8F6790",
"$  c #8F6E92",
"%  c #926D95",
"&  c #907393",
"*  c #907492",
"=  c #967A97",
"-  c #9E769F",
";  c #987A9B",
":  c #A07FA2",
">  c #9A809B",
",  c #9C829C",
"<  c #9E829E",
"1  c #9E83A0",
"2  c #A082A3",
"3  c #A089A1",
"4  c #A58FA7",
"5  c #A783A8",
"6  c #A592A6",
"7  c #AA96AB",
"8  c #AC98AC",
"9  c #AC9BAD",
"0  c #AE9DAF",
"q  c #AF94B0",
"w  c #AF9AB0",
"e  c #B193B2",
"r  c #B094B0",
"t  c #BB9DBB",
"y  c #BCA2BD",
"u  c #BBADBC",
"i  c #BDAFBE",
"p  c #C08DBD",
"a  c #C08EBD",
"s  c #C3ACBF",
"d  c #C3ADBF",
"f  c #C495C2",
"g  c #C799C4",
"h  c #C79AC5",
"j  c #C79BC5",
"k  c #CA9FC8",
"l  c #C5AAC5",
"z  c #CDA4CB",
"x  c #C3B0C3",
"c  c #C6B1C3",
"v  c #C8B3C4",
"b  c #C8B5C9",
"n  c #CBBACC",
"m  c #CBBECC",
"M  c #D5B2D3",
"N  c #D6B5D4",
"B  c #D9BAD7",
"V  c #CDC1CF",
"C  c #D4C3D4",
"Z  c #D7C3D6",
"A  c #D7C8D4",
"S  c #D7CDD7",
"D  c #DDC0DB",
"F  c #DDC1DB",
"G  c #D7CDD8",
"H  c #DFD1DD",
"J  c #DCD3DC",
"K  c #DFD5DE",
"L  c #DFD5DF",
"P  c #E2CBE1",
"I  c #E3CCE1",
"U  c #E4CDE2",
"Y  c #E2D1E1",
"T  c #E7D7E6",
"R  c #E3D9E2",
"E  c #E3D8E3",
"W  c #E4D9E4",
"Q  c #E6DBE6",
"!  c #E4DEE4",
"~  c #E6DEE6",
"^  c #E8DEE8",
"/  c #ECDCEB",
"(  c #EDDDEC",
")  c #E5E0E6",
"_  c #E6E1E6",
"`  c #E9E2E9",
"'  c #EDE1EC",
"]  c #EDE7ED",
"[  c #F0E3EE",
"{  c #F2E5F0",
"}  c #F2E6F1",
"|  c #F0ECF0",
" . c #F6EDF5",
".. c #F6EEF5",
"X. c #F7EFF6",
"o. c #F8EFF6",
"O. c #F8F0F7",
"+. c #F8F1F7",
"@. c #F9F1F7",
"#. c #F9F2F8",
"$. c #F9F3F8",
"%. c #F8F4F8",
"&. c #FAF4F9",
"*. c #FBF6FA",
"=. c #FBF7FA",
"-. c #FBF9FB",
";. c #FCF8FB",
":. c #FDFAFC",
">. c #FDFBFD",
",. c #FEFCFD",
"<. c None",
/* pixels */
"<.<.<.<.<.<.<.<.<.<.<.<.<.<.<.<.",
"<.<.<.d K _ _ _ _ _ _ _ A <.<.<.",
"<.<.c G m J | ] ` ! E K J <.<.<.",
"<.<.S u w q ^ :.;.%.%.$.+.C <.<.",
"<.d i 0 9 ! ,.:.F ( j F +.l . <.",
"<.v 0 6 = y :.$.j f k F +.t   <.",
"<.v 7 3 1 W :.P p / p ..o.r <.<.",
"<.v 4 * > W :.z I U N +.o.5 <.<.",
"<.v & + : E } M %.z } +.o.- <.<.",
"<.v ; $ V -.+...%.j $.+.o.# <.<.",
"<.v 2 % e %.:.;.%.B $.+...X <.<.",
"<.d n b -.,.:.;.%.%.$.+.[ O <.<.",
"<.<.<.<., 9 x C Y ' o.+.T o <.<.",
"<.<.<.<.<.<.<.<.<.<.<.@ , <.<.<.",
"<.<.<.<.<.<.<.<.<.<.<.<.<.<.<.<.",
"<.<.<.<.<.<.<.<.<.<.<.<.<.<.<.<."
};
