/* XPM */
static const char *mini_remmina[] = {
/* columns rows colors chars-per-pixel */
"16 16 92 1 ",
"  c #2050AABB738F",
". c #25C3ACB076D0",
"X c #285BAD8A7847",
"o c #3071B0437CDE",
"O c #35CFB26E8060",
"+ c #3815B2D1813F",
"@ c #3BF4B49383F2",
"# c #3C1FB4AF8443",
"$ c #42FCB6D387E4",
"% c #4483B7238878",
"& c #47DAB8E18B43",
"* c #5642BDC49354",
"= c #5D40BFE49714",
"- c #5EA6C0DB989E",
"; c #63E3C1EC9A72",
": c #7547C912A648",
"> c #4A8093B2DDE3",
", c #4EE5962BDE48",
"< c #51189776DEA8",
"1 c #56219A36DED7",
"2 c #5DF49EBBDFF4",
"3 c #678FA407E074",
"4 c #68B0A4A9E08F",
"5 c #7EB0B180E42F",
"6 c #872CCE70AF7A",
"7 c #87A2CF77B0CC",
"8 c #9230D326B747",
"9 c #99BCD45CB9C7",
"0 c #85E5B5AEE59B",
"q c #8A9AB839E5AC",
"w c #90D3BB24E45A",
"e c #934EBC6FE3DF",
"r c #9491BD7DE531",
"t c #A527D909C15C",
"y c #AAAEDBEDC583",
"u c #B2A6DD30C88B",
"i c #B7F3DE73CA92",
"p c #AE42D169DD43",
"a c #9B74C191E73F",
"s c #9E4DC32EE712",
"d c #A2B1C508E513",
"f c #AC8ECA8CE580",
"g c #A792C8B4E966",
"h c #B067CD6DE8BE",
"j c #B3E8D0C3E52C",
"k c #BB6BD2C4E74E",
"l c #BE12D459E6D4",
"z c #BD37D694E776",
"x c #B882D23FEAA8",
"c c #C3ACE3BAD39F",
"v c #CAFDE5D4D741",
"b c #CCC3E7D6D995",
"n c #D08EE75FD99F",
"m c #D3A1E9D3DD82",
"M c #D531EB54DFE4",
"N c #C43DD81FE8AD",
"B c #C61ED938EA4E",
"V c #C4C4D9C2ED5F",
"C c #CB71DC3DEA16",
"Z c #D260E026EABA",
"A c #DCFBECBAE24F",
"S c #D328E0EBEC78",
"D c #DF45E731EB6F",
"F c #E15DED31E33D",
"G c #E2F1EEFBE648",
"H c #E7A6F063E861",
"J c #E9F5E968E7AA",
"K c #E547EB31EEE7",
"L c #EB7FEA91E8A5",
"P c #EBB4EDC1EA94",
"I c #EFE3EECFEBD0",
"U c #EBDAEF29EEDE",
"Y c #EC88EF10EE08",
"T c #F0AAF041EF3E",
"R c #E605F0D0E924",
"E c #EBABF0CCEB0F",
"W c #EA0FF1C1ECB7",
"Q c #EFC0F111F035",
"! c #F25EF18DEC1E",
"~ c #F37AF2B6EEA9",
"^ c #F4B1F31EEDC8",
"/ c #F1C1F516EFE6",
"( c #F5F5F4CBEFEA",
") c #EC70F038F14D",
"_ c #F46AF3B4F092",
"` c #F853F6C2F2BB",
"' c #F84AF818F70B",
"] c #F915F7A1F3FC",
"[ c #F9F2F7F7F4D9",
"{ c #F8EBF8A7F7EA",
"} c #FC3AFC34FC18",
"| c #FFFAFFFAFFFA",
/* pixels */
"|||||}```'}|||||",
"|||}~PlddlI~}|||",
"||}!f1,44,1f~}||",
"|}!e,dP~~Ud,r^}|",
"|_k,Ni~^^^^Bjb`|",
"|!3w~+;F^^^(6%^|",
"'D>Z^n%ouUh`v A{",
"'C>Y^9X=p25`E c'",
"`S>K`$ts>5_`G b'",
"'Q<x`H`)q,g]yX~'",
"|IalQ`]]]V0/$:~|",
"|T`*=E]]][W-OR~|",
"||Lm@o7ii7o#ML||",
"||}JE8&..&8QL}||",
"||||YJI~~ILY||||",
"||||||}__}||||||"
};
