/* XPM */
static const char *mini_far[] = {
/* columns rows colors chars-per-pixel */
"16 16 208 2 ",
"   c #002120",
".  c #002221",
"X  c #002322",
"o  c #002423",
"O  c #002523",
"+  c #002625",
"@  c #002726",
"#  c #002827",
"$  c #002927",
"%  c #002C2A",
"&  c #002C2B",
"*  c #093938",
"=  c #004141",
"-  c #004343",
";  c #004444",
":  c #004545",
">  c #005A5A",
",  c #005D5D",
"<  c #005E5E",
"1  c #185A5A",
"2  c #006060",
"3  c #006161",
"4  c #006A6A",
"5  c #006E6E",
"6  c #037676",
"7  c #00009D",
"8  c #0000A2",
"9  c #0000A6",
"0  c #0000AA",
"q  c #0000AE",
"w  c #001AAA",
"e  c #001BAE",
"r  c #0000B2",
"t  c #0000B6",
"y  c #0000BA",
"u  c #0000BF",
"i  c #0012B2",
"p  c #001CB3",
"a  c #001CB7",
"s  c #001DB7",
"d  c #001EBC",
"f  c #003BA8",
"g  c #002BBE",
"h  c #423D88",
"j  c #005E82",
"k  c #00548D",
"l  c #004F93",
"z  c #00499B",
"x  c #004B9F",
"c  c #005190",
"v  c #005A97",
"b  c #005C99",
"n  c #00619E",
"m  c #006B9D",
"M  c #0043A5",
"N  c #004DA3",
"B  c #004FA8",
"V  c #004BAE",
"C  c #0052A4",
"Z  c #0055AD",
"A  c #0049B2",
"S  c #004CB2",
"D  c #004BB6",
"F  c #004EB7",
"G  c #0055B0",
"H  c #0059B2",
"J  c #005FB0",
"K  c #0050BC",
"L  c #0059BA",
"P  c #0064A2",
"I  c #0065A9",
"U  c #0061AD",
"Y  c #006BAF",
"T  c #0075A9",
"R  c #0062B3",
"E  c #0065B7",
"W  c #0C65B3",
"Q  c #006DB6",
"!  c #0063BB",
"~  c #0065B8",
"^  c #0060BE",
"/  c #0074BB",
"(  c #0070BE",
")  c #1B7FBE",
"_  c #524E87",
"`  c #544F8A",
"'  c #49439D",
"]  c #54509B",
"[  c #625F92",
"{  c #0000C7",
"}  c #0000CB",
"|  c #0000CC",
" . c #0014C7",
".. c #001CC0",
"X. c #001EC0",
"o. c #001CC4",
"O. c #001EC4",
"+. c #001FC9",
"@. c #0000D0",
"#. c #0000D4",
"$. c #001FD5",
"%. c #001BDD",
"&. c #0A2AC4",
"*. c #0020CD",
"=. c #002ECB",
"-. c #003BC7",
";. c #0B2DD1",
":. c #0021DA",
">. c #0B2DDF",
",. c #0030D4",
"<. c #302DC5",
"1. c #004FC0",
"2. c #0046C8",
"3. c #0055C1",
"4. c #0050C4",
"5. c #0050C5",
"6. c #0053C4",
"7. c #0052C5",
"8. c #0055C9",
"9. c #0056C9",
"0. c #0058CE",
"q. c #005ACE",
"w. c #004AD0",
"e. c #004FDE",
"r. c #0056D2",
"t. c #0059D2",
"y. c #0059D7",
"u. c #005CD7",
"i. c #0057D8",
"p. c #005ADB",
"a. c #005FD8",
"s. c #0059DC",
"d. c #005EDC",
"f. c #0063C4",
"g. c #0060C7",
"h. c #0069C1",
"j. c #0062CB",
"k. c #0B64CA",
"l. c #0061D0",
"z. c #0065D0",
"x. c #006AD2",
"c. c #0068D5",
"v. c #006AD9",
"b. c #006DDB",
"n. c #006BDE",
"m. c #0C6CDD",
"M. c #0074D3",
"N. c #0077D7",
"B. c #007FD0",
"V. c #0079D9",
"C. c #007ADC",
"Z. c #0044E4",
"A. c #005CE0",
"S. c #005FE4",
"D. c #0051EB",
"F. c #0051F5",
"G. c #005DF1",
"H. c #005EF4",
"J. c #0060E0",
"K. c #0061E4",
"L. c #0061E7",
"P. c #006DE2",
"I. c #006BE6",
"U. c #006EE6",
"Y. c #006FE7",
"T. c #0C6CE2",
"R. c #0062EA",
"E. c #006BEB",
"W. c #006EE8",
"Q. c #006FEC",
"!. c #006EEE",
"~. c #0070E9",
"^. c #0072EC",
"/. c #007FEC",
"(. c #007FEE",
"). c #006EF1",
"_. c #006FF3",
"`. c #006DFB",
"'. c #007BF8",
"]. c #5F8887",
"[. c #0083C8",
"{. c #059ACC",
"}. c #0481DD",
"|. c #1E8AD3",
" X c #0B9CD2",
".X c #218DC6",
"XX c #228FC9",
"oX c #228FD5",
"OX c #2896D2",
"+X c #04A0DE",
"@X c #0089E3",
"#X c #0080E9",
"$X c #0486E8",
"%X c #0082EC",
"&X c #0080EE",
"*X c #1380E7",
"=X c #0080F0",
"-X c #0081F0",
";X c #0080F2",
":X c #0083F2",
">X c #0486F0",
",X c #0080F4",
"<X c #0080F6",
"1X c #00A1EB",
"2X c #05AAEF",
"3X c #05AAF1",
"4X c #00ACFD",
"5X c None",
/* pixels */
"4X*XOXoX>X3X|.2X$XXX.X}.+X) {.5X",
"`.<.[ ] >.T.' m.;.` _ &.k.h W 5X",
"'.F.H.G.D.E.Z.I.e.s.i.w.l.-.! 5X",
"<X_.:X:XR.~.S.P.d.C.N.q.j.4.E 5X",
"<X_.:X/.L.Y.A.n.u.N.M.8.f.1.R 5X",
":X!.%X/.L.P.p.v.=.O...g 3.i Z 5X",
":X!.%X#XJ.n.y.c.O.y t s K 0 B 5X",
"~.%.:.$.,.u. .q.X.t r p F 9 N 5X",
"W.#.@.} *.t.u 8.d r q e S 8 x 5X",
"Y.@.| { +.q.y 4.s q 0 w V 7 z 5X",
"1Xp.y.r.z.B.4.[.^ D A G Y M m 5X",
"@Xb.V.x.2.4.f.h.L ~ H f M C v 5X",
" X( / Q J U I T P n b l c k j 5X",
"].* @ & & @ & O # @ . # . O . 5X",
"1 6 : 3 3 : 5 - < < - 4 - > 3 5X",
"5X5X5X5X5X5X5X5X5X5X5X5X5X5X5X5X"
};
