/* XPM */
static const char *mini_visio_0[] = {
/* columns rows colors chars-per-pixel */
"16 16 118 2 ",
"   c #4057A3",
".  c #445AA5",
"X  c #4D63AA",
"o  c #576CAF",
"O  c #7A7FA6",
"+  c #747AA8",
"@  c #757DAC",
"#  c #6276B3",
"$  c #6679B4",
"%  c #6D80B9",
"&  c #6F80BB",
"*  c #7484B7",
"=  c #7082B9",
"-  c #7182BB",
";  c #7586BB",
":  c #7182BC",
">  c #7788BF",
",  c #7C8BBA",
"<  c #7F8DBB",
"1  c #7889BF",
"2  c #7B8BBF",
"3  c #7E8EBE",
"4  c #7D8DC0",
"5  c #898DAD",
"6  c #8A8FAF",
"7  c #8188B3",
"8  c #8288B3",
"9  c #868CB3",
"0  c #8C90B1",
"q  c #8E92B3",
"w  c #9095B1",
"e  c #9397B2",
"r  c #9095B5",
"t  c #9297B7",
"y  c #9096BC",
"u  c #9297BC",
"i  c #9398B9",
"p  c #BABABA",
"a  c #8090C3",
"s  c #8292C3",
"d  c #8191C5",
"f  c #8896C2",
"g  c #8C99C3",
"h  c #8B99C8",
"j  c #8E9CC9",
"k  c #929FC8",
"l  c #919FCD",
"z  c #95A2CD",
"x  c #99A6CF",
"c  c #9EA9CD",
"v  c #9BA8D0",
"b  c #9FABD1",
"n  c #A8ACC7",
"m  c #B6B9C2",
"M  c #A7B2D5",
"N  c #A4B0D6",
"B  c #ADB5D2",
"V  c #AAB5DA",
"C  c #AFB9D8",
"Z  c #B6BFDD",
"A  c #B5BFDE",
"S  c #B9BFDA",
"D  c #B7C0DD",
"F  c #B8C0DD",
"G  c #B8C1DD",
"H  c #BDC5DF",
"J  c #B6C0E0",
"K  c #B7C1E0",
"L  c #B9C2E0",
"P  c #BDC5E0",
"I  c #BFC8E4",
"U  c #C6C6C6",
"Y  c #C7CBD5",
"T  c #CDCFDF",
"R  c #DBDBDB",
"E  c #C1C8E1",
"W  c #C8CFE5",
"Q  c #CBD3EB",
"!  c #CFD5E8",
"~  c #CFD5E9",
"^  c #CDD5ED",
"/  c #CED5EC",
"(  c #CED6ED",
")  c #D5D8E3",
"_  c #D8DBE7",
"`  c #D0D5E8",
"'  c #D6DBEB",
"]  c #D5DAEC",
"[  c #DDE1ED",
"{  c #DCE0EF",
"}  c #DFE3EF",
"|  c #DBE0F1",
" . c #E0E4F2",
".. c #E2E6F2",
"X. c #E3E6F2",
"o. c #E1E7F7",
"O. c #E6E9F3",
"+. c #E3E8F7",
"@. c #E9ECF5",
"#. c #E9EDFA",
"$. c #EAEEFC",
"%. c #EDF0F9",
"&. c #EFF1F8",
"*. c #EDF0FA",
"=. c #ECF0FC",
"-. c #EDF1FC",
";. c #ECF0FD",
":. c #EDF1FD",
">. c #F0F3FC",
",. c #F0F3FD",
"<. c #F0F4FD",
"1. c #F5F7FE",
"2. c #F8F9FE",
"3. c #F9FAFE",
"4. c #FDFDFF",
"5. c #FEFFFF",
"6. c #FFFFFF",
"7. c None",
/* pixels */
"7.7.7.7.@ 7 7 7 7 7 7 7 + 7.7.7.",
"7.7.u S E P P P P P P H n 7.7.7.",
"7.u C j b &.@.X.[ ' ! W T 7.7.7.",
"7.B 4 4 M 6.6.6.6.6.6.6.6.6.R 7.",
"9 k - - G O.> a Z 6.6.6.6.6.U 7.",
"i 3 & & ` ! : & D 6.6.6.6.6.p 7.",
"t f 2 2 @.] v h ! 6.6.6.6.6.7.7.",
"t c z a 3.3.Z &.3.3.3.3.3.3.7.7.",
"q g # 2 1.1.L &.1.1.1.,.1.1.7.7.",
"q * $ x ,.+.M ,.I ;.J o ( ,.7.7.",
"6 , - Z ;.o.J ;.d ( .   X | 7.7.",
"6 < ; Q ;.;.;.;.;.;.l   V X.7.7.",
"O e e X.;.;.;.;.;.;.$.( ;.[ 7.7.",
"7.7.7.7.7.7.m Y ) } #.;.;._ 7.7.",
"7.7.7.7.7.7.7.7.7.7.7.7.7.7.7.7.",
"7.7.7.7.7.7.7.7.7.7.7.7.7.7.7.7."
};
