/* XPM */
static const char *mini_pcsx2[] = {
/* columns rows colors chars-per-pixel */
"16 13 97 2 ",
"   c #15B5272B4098",
".  c #20A9303D4F63",
"X  c #24B230CE59C8",
"o  c #20E73CED66DB",
"O  c #28903ABA64DC",
"+  c #2DDD3CD06F0D",
"@  c #3A9E41C55A25",
"#  c #2F203FFB6957",
"$  c #242146437518",
"%  c #3F344AA47019",
"&  c #3C4848F3728D",
"*  c #42984AA264CD",
"=  c #44F64E086BFC",
"-  c #45795162776C",
";  c #243049E481E5",
":  c #33704DE48685",
">  c #37C449B786AA",
",  c #3AF04CE889D8",
"<  c #28E650928ADA",
"1  c #3AB154FB8F16",
"2  c #39354D669150",
"3  c #3CF851BB9793",
"4  c #3D7A51ED9741",
"5  c #3C8A531D9DD8",
"6  c #33C0583C9887",
"7  c #3D315BDB9AB8",
"8  c #33706592B07B",
"9  c #464255D58A84",
"0  c #53FB5EC28449",
"q  c #476E586291D7",
"w  c #57F964738961",
"e  c #5D8A69FA8DB6",
"r  c #652770918B9C",
"t  c #628F6F3D95C6",
"y  c #43A85B58AB49",
"u  c #45775D66AE4D",
"i  c #46B168EDA6FA",
"p  c #435664AFA8D4",
"a  c #49956CABACF1",
"s  c #490960E3B166",
"d  c #4A98629DB3AE",
"f  c #44E2684AB6AD",
"g  c #4AE76F4FB489",
"h  c #46997BA4B4CE",
"j  c #4A6A7CFCB27B",
"k  c #65627C03BCFF",
"l  c #3B46732FC30F",
"z  c #3E327453C0AD",
"x  c #45A27E6AC6CA",
"c  c #552A7EABD015",
"v  c #750880EA9272",
"b  c #7A738789A24C",
"n  c #7E758C9EB246",
"m  c #476E80D7C526",
"M  c #56A4802AD0C7",
"N  c #5A38843DD16D",
"B  c #5A88857FD589",
"V  c #5AAA8625D8FB",
"C  c #582383F5DDB1",
"Z  c #762B85A3C231",
"A  c #6ADF8329D535",
"S  c #719F8A66DE77",
"D  c #74388C49DD9D",
"F  c #7F1290C2D137",
"G  c #43768596E847",
"H  c #463985EDE479",
"J  c #46D087E0E7BA",
"K  c #4C8A8DC9E511",
"L  c #45658814EBFA",
"P  c #5EE58CC5E7EA",
"I  c #5B468991EEA6",
"U  c #498A8E62F4B4",
"Y  c #7C04936BE203",
"T  c #7AD99368E72A",
"R  c #7FCA96F7E556",
"E  c #65D49661F41A",
"W  c #65819750FCF4",
"Q  c #5D14A22DEE67",
"!  c #5AE1A42BFD70",
"~  c #8DF69CD0B4AC",
"^  c #845C93EDC26B",
"/  c #8C9B9DE9D8D1",
"(  c #9246A393D74E",
")  c #9FF8B152D3A8",
"_  c #8FD0A234E88E",
"`  c #951AA788E4E5",
"'  c #9678A8EFE352",
"]  c #9AFFAE84F65C",
"[  c #9768AAA4F99B",
"{  c #AB48BE88EA24",
"}  c #A780BB05F3FB",
"|  c #B0A6C44CF105",
" . c #B569C963F82E",
".. c #B2BFC77FFDEF",
"X. c #BDAFD180F428",
"o. c #C9FEDF17FFFF",
"O. c None",
/* pixels */
"O.O.O.O.O.O.O.I f O.O.O.O.O.O.O.",
"O.O.O.O.O.O.C : p W O.O.O.O.O.O.",
"O.O.O.O.O.c V B M 7 P E O.O.O.O.",
"O.O.O.G L 6 g a . i N 1 5 O.O.O.",
"O.U 8 ; J J O.O.[ k O 2 u y y O.",
"l < $ K z o O.] Z _ F + 4 s s 4 ",
"O.O.! x   ( ' 0 = ` / O.X > , O.",
"O.O.m Q O.t * O...^ @ O.} - O.O.",
"O.O.O.h j O.O.{ | r O. .n O.O.O.",
"O.O.O.O.# A S e ) o.X.b O.O.O.O.",
"O.O.O.O.O.q D T w ~ v O.O.O.O.O.",
"O.O.O.O.O.O.9 Y R O.O.O.O.O.O.O.",
"O.O.O.O.O.O.O.& & O.O.O.O.O.O.O."
};
