/* XPM */
static const char *mini_excel[] = {
/* columns rows colors chars-per-pixel */
"16 16 143 2 ",
"   c #39672A",
".  c #426B30",
"X  c #477930",
"o  c #517D38",
"O  c #667F59",
"+  c #55813D",
"@  c #638D3F",
"#  c #588149",
"$  c #658E5D",
"%  c #6F9958",
"&  c #7BA165",
"*  c #74A66E",
"=  c #7AA569",
"-  c #7CA86D",
";  c #79A970",
":  c #78A872",
">  c #7EAC76",
",  c #8AAB76",
"<  c #82AF7A",
"1  c #87B276",
"2  c #8BB678",
"3  c #8ECA70",
"4  c #8B9685",
"5  c #8CB585",
"6  c #98B585",
"7  c #9BB685",
"8  c #91B985",
"9  c #9ABF89",
"0  c #A5BF96",
"q  c #A9ACA2",
"w  c #ABBEA6",
"e  c #AEB0AB",
"r  c #9CC182",
"t  c #9EC08C",
"y  c #9DC093",
"u  c #A5D58C",
"i  c #A1C397",
"p  c #A7C79D",
"a  c #AEC59D",
"s  c #AFC59F",
"d  c #AECC9B",
"f  c #AFCF9B",
"g  c #B2CF9F",
"h  c #AFD09B",
"j  c #B5D19E",
"k  c #B5D19F",
"l  c #B0DA99",
"z  c #A7C6A2",
"x  c #ACCAA4",
"c  c #ADCAA6",
"v  c #B2CEA2",
"b  c #B6CAA6",
"n  c #B7CBA9",
"m  c #B8CAAC",
"M  c #BBCEAF",
"N  c #BDCFAF",
"B  c #B6D4A4",
"V  c #B7D5A4",
"C  c #B9DDA5",
"Z  c #B8D2AB",
"A  c #BAD8A8",
"S  c #BDDFA9",
"D  c #BFDEAC",
"F  c #BCC0B4",
"G  c #B6D0B0",
"H  c #BCD4B0",
"J  c #C2C6B9",
"K  c #C7CBBF",
"L  c #C7D6BA",
"P  c #C9D7BB",
"I  c #C3D8BB",
"U  c #C4D9B9",
"Y  c #C4DAB8",
"T  c #C3E1B1",
"R  c #CCE5BB",
"E  c #CEE6BD",
"W  c #C9CBC5",
"Q  c #C9DCC1",
"!  c #CADDC2",
"~  c #CEDDC1",
"^  c #CDDFC6",
"/  c #CEDAC8",
"(  c #D0DEC1",
")  c #D1D5C9",
"_  c #D5DDCD",
"`  c #DADED2",
"'  c #CEE0C4",
"]  c #D2E9C4",
"[  c #D2E2CB",
"{  c #D3E3CC",
"}  c #D5E1CC",
"|  c #D6E2CC",
" . c #D5E4CC",
".. c #DAE6CE",
"X. c #DCEDD0",
"o. c #DDE9D5",
"O. c #DEE8D6",
"+. c #DEE0D8",
"@. c #DFE8D9",
"#. c #E2E6DA",
"$. c #E0ECD9",
"%. c #E3EDD9",
"&. c #E2ECDB",
"*. c #E4EEDE",
"=. c #E7F0DD",
"-. c #E5ECE0",
";. c #E7EEE0",
":. c #E8EFE0",
">. c #EAEFE4",
",. c #E7F0E0",
"<. c #E8F0E1",
"1. c #E9F1E1",
"2. c #EAF2E2",
"3. c #ECF3E1",
"4. c #EEF1E6",
"5. c #EEF1E7",
"6. c #ECF3E7",
"7. c #EEF5E5",
"8. c #EFF3EB",
"9. c #F2F7E7",
"0. c #F0F5EB",
"q. c #F4F8EA",
"w. c #F5F9ED",
"e. c #F3F7F0",
"r. c #F4F8F0",
"t. c #F5F8F0",
"y. c #F5F9F0",
"u. c #F6F9F2",
"i. c #F7F8F5",
"p. c #F7F9F5",
"a. c #F8FAF4",
"s. c #F9FBF6",
"d. c #F9FBF7",
"f. c #FAFCF6",
"g. c #FBFCFA",
"h. c #FCFCFA",
"j. c #FCFDFA",
"k. c #FCFDFB",
"l. c #FDFDFC",
"z. c #FDFEFC",
"x. c #FEFEFC",
"c. c #FEFEFD",
"v. c None",
/* pixels */
"v.v.v.v.v.v.v.v.v.v.v.v.v.v.v.v.",
"v.v.v.3 S R E E E E E E l v.v.v.",
"v.v.u ..P L L L L L L L T v.v.v.",
"v.3 ~ n N b a a a a a a D v.v.v.",
"v.C 7 } :.>.l.p.8.-.o.} X._ v.v.",
"v.A & -.( @ m Q 8 x 0.x G [ 6.v.",
"v.V % g.l.7 o - p u.*.; * z #.v.",
"v.V , l.6.t + # d.f.u.$.{ o.` v.",
"v.V 0 e.v 9 =   $ *.Q < 5 ^ ) v.",
"v.f M d.l.l.d./ w u.I > * Q K v.",
"v.h @.k r f $.Z Y ,.,.<.<.7.F v.",
"v.V h.k r g Y 2 1  .y ; ; $.v.v.",
"v.] p.h.h.u.<.' H <.i > * 3.v.v.",
"v.v.X . O 4 e W +.6.w.q.=.9.v.v.",
"v.v.v.v.v.v.v.v.v.v.v.v.q J v.v.",
"v.v.v.v.v.v.v.v.v.v.v.v.v.v.v.v."
};
