/* XPM */
static const char *mini_xemu[] = {
/* columns rows colors chars-per-pixel */
"16 16 55 1 ",
"  c #0F3612",
". c #103713",
"X c #103813",
"o c #113814",
"O c #113914",
"+ c #113A15",
"@ c #123A15",
"# c #123B15",
"$ c #133C16",
"% c #143D17",
"& c #143E17",
"* c #143E18",
"= c #153F19",
"- c #164019",
"; c #17421A",
": c #1A461D",
"> c #1E4B21",
", c #1E4C22",
"< c #204F24",
"1 c #235327",
"2 c #235428",
"3 c #245428",
"4 c #245528",
"5 c #255529",
"6 c #255629",
"7 c #26572A",
"8 c #27592B",
"9 c #2C6030",
"0 c #2C6031",
"q c #2D6232",
"w c #2E6332",
"e c #2E6333",
"r c #2F6433",
"t c #2F6434",
"y c #2F6534",
"u c #306534",
"i c #316735",
"p c #316736",
"a c #326A37",
"s c #336A37",
"d c #336A38",
"f c #336B38",
"g c #366F3B",
"h c #37703C",
"j c #3E7B43",
"k c #417E46",
"l c #4B8E52",
"z c #4C8F52",
"x c #4F9255",
"c c #4F9356",
"v c #549A5A",
"b c #579F5E",
"n c #58A15F",
"m c #62AF6A",
"M c None",
/* pixels */
"MMMMMMMMMMMMMMMM",
"MMMM4fyryif2MMMM",
"MMMqyo    oiqMMM",
"MMq1        4qMM",
"M4r          i4M",
"Mf.          ofM",
"Mi o.ooo=&o.X iM",
",y -cinvzmx4q rM",
",y -lhbhjgzkq rM",
"My $o=-:&oo,o yM",
"Ma           XfM",
"M8q          y4M",
"MMr<        1qMM",
"MMMrq     .qqMMM",
"MMMM8ayyyif4MMMM",
"MMMMMMM>,MMMMMMM"
};
