/* XPM */
static const char *mini_pwrppt[] = {
/* columns rows colors chars-per-pixel */
"16 16 127 2 ",
"   c #D94B00",
".  c #DB550E",
"X  c #E35410",
"o  c #F26118",
"O  c #E56123",
"+  c #E66224",
"@  c #F26721",
"#  c #F57329",
"$  c #E9763F",
"%  c #F27037",
"&  c #F67F3B",
"*  c #F47B3F",
"=  c #AB7763",
"-  c #E57A43",
";  c #E57D47",
":  c #EB7E4A",
">  c #F37A45",
",  c #F88439",
"<  c #F8853C",
"1  c #FB954A",
"2  c #E68654",
"3  c #F18252",
"4  c #F88A55",
"5  c #FB9B55",
"6  c #DA8D70",
"7  c #F28C60",
"8  c #F28D61",
"9  c #EE9266",
"0  c #EC996E",
"q  c #F79766",
"w  c #F39368",
"e  c #F69469",
"r  c #F79569",
"t  c #EDA078",
"y  c #FAA377",
"u  c #FDA17F",
"i  c #FEB87E",
"p  c #B18F82",
"a  c #BCAAA3",
"s  c #BCB1AA",
"d  c #F8A481",
"f  c #F7A885",
"g  c #F9AE83",
"h  c #FDAA8B",
"j  c #FEBB82",
"k  c #FAB58F",
"l  c #FDBC8C",
"z  c #FDBD8D",
"x  c #FDAF92",
"c  c #FAB791",
"v  c #F7B79A",
"b  c #F8B399",
"n  c #FABD9E",
"m  c #C0B6B1",
"M  c #C7BCB5",
"N  c #FDBAA1",
"B  c #FDC49A",
"V  c #FEC89B",
"C  c #CCC1BA",
"Z  c #D1C5BE",
"A  c #FCC1A3",
"S  c #F8C2A8",
"D  c #FBC5AA",
"F  c #FDC4AE",
"G  c #FCC9A9",
"H  c #FDCEAB",
"J  c #FDC9B6",
"K  c #FACAB9",
"L  c #FDCCB9",
"P  c #FDCDBB",
"I  c #F9CDBE",
"U  c #FCD0B7",
"Y  c #FED8B9",
"T  c #CBC6C3",
"R  c #DBCDC6",
"E  c #FACFC0",
"W  c #E5D7CF",
"Q  c #FAD0C1",
"!  c #FBD0C1",
"~  c #FCD6C2",
"^  c #FAD2C4",
"/  c #FCD5C5",
"(  c #FDDBC5",
")  c #FBD6C8",
"_  c #FBDACD",
"`  c #FDDACE",
"'  c #FDDECC",
"]  c #E2DCD9",
"[  c #FCDED2",
"{  c #FBDFD7",
"}  c #FEDFD5",
"|  c #FEE3D2",
" . c #FBE0D7",
".. c #FDE0D4",
"X. c #FCE2D7",
"o. c #FDE4D7",
"O. c #FFE8D7",
"+. c #FEE2D8",
"@. c #FDE7DB",
"#. c #FCE5DC",
"$. c #FDE6DE",
"%. c #FDE8DC",
"&. c #FBECE3",
"*. c #FFECE3",
"=. c #FDEDE5",
"-. c #F3ECE8",
";. c #FFF0E8",
":. c #FFF1E9",
">. c #FFF1EA",
",. c #FFF2EA",
"<. c #FFF2EB",
"1. c #FEF2EC",
"2. c #FFF3ED",
"3. c #FFF4ED",
"4. c #FFF4EE",
"5. c #FFF5EF",
"6. c #FEF5F0",
"7. c #FFF5F0",
"8. c #FFF6F1",
"9. c #FFF7F3",
"0. c #FFF8F4",
"q. c #FFF8F5",
"w. c #FFF9F5",
"e. c #FFFBF9",
"r. c #FFFCFB",
"t. c #FFFEFD",
"y. c None",
/* pixels */
"y.y.y.y.y.y.y.y.y.y.y.y.y.y.y.y.",
"y.y.y.y.y.y.y.y.y.y.y.y.y.y.y.y.",
"y.y.y.u L } +.+.+.+.+.+.F y.y.y.",
"y.y.h $. .{ { { { { { { L y.y.y.",
"y.y.` ! $.X.[ _ ) ^ E I J y.y.y.",
"y.x K ! r.3.q.q.7.7.3.,.*.=.&.y.",
"y.N b / q.1 < & * > 3 9 t %.W y.",
"y.N d X.O.z | U @ r w X   @.R y.",
"y.N r 1.Y z G c n 7.S : . ,.Z y.",
"y.N 4 t.V B G g ~ 3.v + 2 ,.M y.",
"y.N y t.i H ( k q 3.,.@.; ,.s y.",
"y.N A t.j 5 < # o % 8 O - ,.y.y.",
"y.N o.t.r.e.,.' D f 8 $ 0 ,.y.y.",
"y.y.6 = p a T ] -.7.3.1.,.,.y.y.",
"y.y.y.y.y.y.y.y.y.y.y.y.m C y.y.",
"y.y.y.y.y.y.y.y.y.y.y.y.y.y.y.y."
};
